Amelie.cube
# Enhanced with VOXCOLOR algorithms
LUT_3D_SIZE 8
DOMAIN_MIN 0.000000 0.000000 0.000000
DOMAIN_MAX 0.903226 0.903226 0.903226
0.047059 0.086275 0.007843
0.130256 0.088306 0.007867
0.259480 0.089909 0.008889
0.414670 0.090111 0.012182
0.567393 0.089607 0.016099
0.698643 0.088546 0.019723
0.804042 0.086834 0.024033
0.880430 0.086287 0.029223
0.063102 0.115926 0.014811
0.137182 0.129220 0.014560
0.260802 0.136441 0.017141
0.404619 0.138524 0.019740
0.546570 0.137025 0.022830
0.673717 0.131725 0.027292
0.780588 0.123402 0.032594
0.863482 0.112147 0.036507
0.084768 0.143438 0.021953
0.160000 0.168086 0.025233
0.284374 0.185182 0.027313
0.421296 0.194970 0.030026
0.546900 0.199576 0.034784
0.658352 0.198656 0.041192
0.755796 0.190565 0.047900
0.838303 0.174477 0.052838
0.113288 0.175658 0.034087
0.188959 0.208720 0.041560
0.309594 0.235196 0.045669
0.449219 0.253887 0.048009
0.568121 0.267061 0.052226
0.662204 0.275226 0.059739
0.743300 0.276147 0.069299
0.816527 0.266683 0.077444
0.151619 0.216894 0.052748
0.228517 0.256651 0.063144
0.336538 0.288968 0.070466
0.469961 0.313592 0.073977
0.592581 0.332537 0.076894
0.683122 0.348151 0.083857
0.750905 0.359973 0.095420
0.810206 0.365220 0.107967
0.203060 0.268609 0.077566
0.279135 0.315650 0.092561
0.374795 0.350858 0.101796
0.491219 0.377191 0.107052
0.610260 0.397772 0.110377
0.706990 0.416401 0.116172
0.773488 0.434874 0.127946
0.821291 0.452360 0.143591
0.262818 0.329160 0.108624
0.339210 0.391151 0.133477
0.422232 0.425349 0.143876
0.519981 0.446783 0.148048
0.625203 0.463145 0.150705
0.723282 0.480712 0.156072
0.799154 0.501878 0.167832
0.846238 0.523219 0.184784
0.318630 0.384088 0.139070
0.403939 0.479230 0.187878
0.476096 0.514225 0.202827
0.555325 0.524190 0.200492
0.644054 0.527525 0.195786
0.735280 0.536425 0.196555
0.816016 0.554376 0.207027
0.874090 0.578739 0.227850
0.066554 0.091372 0.025889
0.124375 0.101486 0.036691
0.252864 0.106101 0.036579
0.421430 0.106054 0.035846
0.582429 0.103947 0.037745
0.715192 0.101137 0.041833
0.817122 0.097635 0.047254
0.889191 0.095247 0.052891
0.081322 0.129432 0.031088
0.140509 0.156111 0.043258
0.260392 0.165069 0.047586
0.416784 0.164440 0.050212
0.569770 0.159363 0.053758
0.700425 0.150867 0.058948
0.805703 0.141149 0.065164
0.883105 0.132775 0.071914
0.110576 0.174158 0.041894
0.166704 0.208309 0.054866
0.276173 0.229143 0.060306
0.421511 0.236699 0.063749
0.562954 0.236869 0.067999
0.684432 0.231091 0.074160
0.785339 0.219596 0.081994
0.864691 0.203754 0.091077
0.149793 0.222951 0.059181
0.203632 0.259841 0.072839
0.303987 0.288415 0.079711
0.439429 0.307084 0.083020
0.571685 0.316951 0.086657
0.682040 0.320577 0.092737
0.771943 0.317427 0.102020
0.845127 0.304379 0.113988
0.197145 0.276133 0.081586
0.249435 0.315800 0.097245
0.339521 0.348033 0.106352
0.462241 0.372230 0.110448
0.589648 0.388469 0.113132
0.695172 0.399743 0.118030
0.774832 0.407589 0.127708
0.837114 0.407758 0.142314
0.255369 0.338319 0.111878
0.303632 0.379170 0.129759
0.381994 0.412099 0.141227
0.487509 0.435855 0.146249
0.606490 0.453004 0.148367
0.713556 0.466655 0.151644
0.791682 0.480154 0.160117
0.844443 0.492895 0.175414
0.322610 0.411050 0.151653
0.363250 0.449581 0.171000
0.428217 0.481212 0.185819
0.515581 0.500481 0.190971
0.620605 0.512881 0.191214
0.726383 0.523688 0.192238
0.810832 0.537497 0.198577
0.862498 0.554817 0.211915
0.392722 0.494440 0.201109
0.422147 0.522981 0.219912
0.474319 0.554521 0.239901
0.544393 0.568194 0.244589
0.633922 0.571372 0.239899
0.733407 0.574295 0.235901
0.822677 0.582895 0.238439
0.882431 0.598264 0.249152
0.096896 0.101519 0.047505
0.140566 0.118633 0.060370
0.246745 0.130904 0.064425
0.416532 0.132697 0.061949
0.589616 0.128193 0.061852
0.727292 0.123213 0.065602
0.826496 0.118601 0.071162
0.892490 0.114836 0.076716
0.115340 0.144808 0.054922
0.165128 0.170122 0.072128
0.261186 0.190716 0.082929
0.414041 0.196814 0.086601
0.577308 0.191655 0.089056
0.714671 0.181590 0.093983
0.820167 0.170935 0.100254
0.892985 0.162799 0.106654
0.144309 0.203463 0.064884
0.195599 0.239134 0.083536
0.286232 0.264888 0.098926
0.423338 0.274782 0.107216
0.572181 0.271995 0.112505
0.703046 0.261946 0.119300
0.809103 0.247771 0.127956
0.887652 0.233528 0.137889
0.189581 0.268290 0.084115
0.237218 0.306091 0.102378
0.318590 0.335768 0.119626
0.439772 0.353529 0.129803
0.574996 0.359259 0.135628
0.696733 0.357054 0.142250
0.796442 0.348978 0.152390
0.873966 0.334630 0.166127
0.244541 0.333761 0.110976
0.287854 0.370558 0.130144
0.358617 0.401424 0.148275
0.463525 0.424421 0.159582
0.586926 0.437636 0.164718
0.701805 0.444194 0.169242
0.793501 0.447032 0.178176
0.864007 0.443312 0.193420
0.305266 0.402369 0.146297
0.343614 0.436801 0.166152
0.404058 0.466233 0.185361
0.492739 0.488680 0.197403
0.603526 0.503417 0.201934
0.714650 0.513293 0.204019
0.803304 0.522798 0.209866
0.865652 0.531246 0.223731
0.370086 0.475684 0.189829
0.400914 0.504047 0.209012
0.450698 0.529400 0.229287
0.523386 0.547956 0.241899
0.619293 0.559459 0.245475
0.725280 0.567507 0.244901
0.816927 0.577705 0.246798
0.877213 0.591245 0.257046
0.436470 0.554658 0.243523
0.455983 0.570751 0.257305
0.494421 0.590023 0.277155
0.551758 0.604394 0.290350
0.632045 0.609983 0.292301
0.730164 0.612465 0.288593
0.824904 0.618193 0.285840
0.890744 0.628779 0.289982
0.131820 0.117011 0.067384
0.173429 0.140256 0.083417
0.259347 0.161472 0.093958
0.412923 0.170460 0.093478
0.591074 0.165840 0.090072
0.736120 0.156444 0.091597
0.834986 0.149400 0.097533
0.895907 0.146187 0.104442
0.161419 0.164518 0.081071
0.206408 0.186623 0.101482
0.283283 0.215777 0.119399
0.415371 0.234211 0.127747
0.578582 0.233916 0.128552
0.723575 0.223709 0.130854
0.830789 0.213120 0.136835
0.899921 0.205832 0.143928
0.192541 0.230457 0.093481
0.242730 0.260632 0.117056
0.316862 0.288484 0.141370
0.431419 0.309441 0.157406
0.576062 0.313332 0.163955
0.714179 0.304243 0.169175
0.824325 0.290048 0.177635
0.901901 0.277503 0.188674
0.235628 0.308668 0.111857
0.283304 0.342597 0.134844
0.353806 0.371390 0.162190
0.455054 0.391909 0.183828
0.581782 0.399569 0.195715
0.708690 0.395363 0.204214
0.815604 0.383449 0.215678
0.897068 0.368528 0.230778
0.291049 0.385734 0.140730
0.332056 0.417546 0.162127
0.394164 0.446091 0.189611
0.481981 0.467795 0.213993
0.593388 0.479930 0.228201
0.709352 0.483445 0.236865
0.809570 0.481034 0.247654
0.888381 0.472857 0.263527
0.350644 0.457660 0.179030
0.385698 0.485363 0.199538
0.438717 0.511212 0.226395
0.513546 0.532471 0.251500
0.610542 0.547041 0.266394
0.717189 0.555618 0.273242
0.812013 0.561496 0.279903
0.884434 0.564523 0.292759
0.409329 0.525851 0.222949
0.437431 0.547214 0.241701
0.482492 0.568973 0.267821
0.546292 0.587830 0.293275
0.629132 0.601364 0.308603
0.726431 0.610443 0.313986
0.820002 0.618707 0.316568
0.889573 0.628664 0.324874
0.464540 0.590759 0.271072
0.483718 0.603228 0.284669
0.521318 0.618755 0.308504
0.575877 0.634739 0.334820
0.645579 0.645455 0.351505
0.732945 0.651624 0.356153
0.826219 0.657984 0.355144
0.898610 0.667138 0.357264
0.169204 0.138339 0.086015
0.214686 0.168515 0.108161
0.288542 0.199115 0.127244
0.419547 0.217725 0.133981
0.589234 0.216456 0.128190
0.740954 0.203369 0.123466
0.844287 0.193030 0.128387
0.902174 0.190507 0.137286
0.213955 0.192283 0.109763
0.255586 0.213819 0.132279
0.321647 0.247684 0.156906
0.430710 0.275928 0.172584
0.581013 0.284465 0.174221
0.730056 0.276551 0.171961
0.841416 0.265407 0.176064
0.908340 0.259545 0.185107
0.251380 0.260991 0.127668
0.299531 0.285593 0.156016
0.362794 0.313171 0.186291
0.454870 0.342741 0.210379
0.583007 0.358752 0.220330
0.721829 0.356273 0.222458
0.836194 0.344516 0.228217
0.912349 0.334548 0.240158
0.290703 0.343954 0.146242
0.339668 0.371889 0.176049
0.403713 0.397459 0.210903
0.486023 0.421598 0.242212
0.594140 0.438605 0.261026
0.717754 0.440618 0.270372
0.829160 0.430078 0.280484
0.912374 0.416581 0.296063
0.337805 0.427821 0.172771
0.380627 0.454161 0.198926
0.441266 0.479573 0.234050
0.517315 0.500840 0.269883
0.611029 0.516256 0.295951
0.718942 0.522504 0.311690
0.822801 0.518240 0.325007
0.907597 0.507233 0.341732
0.390136 0.501365 0.209017
0.425856 0.523239 0.231754
0.479571 0.546440 0.264560
0.548265 0.567070 0.301206
0.630901 0.583200 0.331479
0.725825 0.593506 0.350139
0.821190 0.597520 0.362071
0.901694 0.595774 0.375884
0.440064 0.562691 0.249690
0.469828 0.579494 0.270026
0.516856 0.599177 0.300701
0.578547 0.618772 0.337175
0.651617 0.635919 0.369649
0.735799 0.648661 0.389754
0.825105 0.657386 0.399367
0.901331 0.664517 0.408580
0.482566 0.613374 0.288582
0.506382 0.624250 0.305365
0.549040 0.639496 0.334455
0.606357 0.657747 0.372066
0.672264 0.674823 0.407106
0.747103 0.687518 0.428651
0.831226 0.697439 0.437546
0.906715 0.707178 0.442872
0.211956 0.168569 0.108984
0.263786 0.206354 0.137850
0.330771 0.243897 0.165258
0.437659 0.269474 0.182198
0.585397 0.274285 0.180458
0.737604 0.261079 0.168308
0.850737 0.247049 0.166040
0.910604 0.244877 0.176293
0.270450 0.228970 0.143126
0.310519 0.252497 0.167869
0.368643 0.288548 0.197122
0.457248 0.321639 0.220464
0.585729 0.338649 0.227838
0.731434 0.336412 0.222519
0.849737 0.325147 0.221367
0.918317 0.319728 0.231617
0.314873 0.298795 0.168404
0.359707 0.319650 0.199127
0.414768 0.347793 0.232157
0.489083 0.381142 0.261804
0.596058 0.406414 0.278102
0.727451 0.413264 0.280199
0.845938 0.405420 0.281766
0.922962 0.397563 0.293343
0.350860 0.380238 0.188890
0.400851 0.401836 0.224475
0.458911 0.424952 0.263223
0.526701 0.451156 0.299056
0.614731 0.476691 0.324020
0.727044 0.489532 0.335848
0.839705 0.484916 0.343472
0.923790 0.474574 0.357663
0.386641 0.462786 0.210417
0.434893 0.483769 0.244570
0.494718 0.505474 0.286039
0.561882 0.526553 0.327612
0.638318 0.547272 0.361368
0.731531 0.561873 0.383812
0.833264 0.561997 0.398803
0.921017 0.552244 0.414926
0.425458 0.534502 0.238234
0.467716 0.552361 0.267535
0.525301 0.573236 0.307431
0.591500 0.593543 0.351497
0.662335 0.612185 0.392406
0.741596 0.627202 0.423604
0.830684 0.633580 0.443395
0.916096 0.630135 0.459023
0.463382 0.589088 0.270841
0.500674 0.603818 0.296732
0.554302 0.622795 0.333938
0.617540 0.643123 0.378163
0.684569 0.662903 0.422649
0.755453 0.679992 0.458873
0.834239 0.691689 0.480650
0.913031 0.697524 0.494240
0.493627 0.627861 0.300440
0.528397 0.639161 0.324032
0.579966 0.655645 0.360651
0.641311 0.675987 0.405520
0.706204 0.697288 0.452352
0.772494 0.716618 0.491606
0.843793 0.731985 0.515627
0.916063 0.744088 0.528609
0.268601 0.213990 0.141937
0.322207 0.255346 0.175975
0.382738 0.294697 0.207793
0.467961 0.321853 0.230973
0.586903 0.330987 0.237283
0.726127 0.321877 0.226216
0.847861 0.304769 0.213352
0.918647 0.301031 0.218607
0.330447 0.273821 0.182192
0.370411 0.300385 0.209520
0.421254 0.336044 0.241040
0.492303 0.369546 0.268735
0.595733 0.390749 0.283909
0.726688 0.394801 0.282671
0.850515 0.386142 0.275690
0.927927 0.381531 0.281753
0.377916 0.341770 0.214063
0.419212 0.360908 0.244746
0.467981 0.390662 0.278919
0.528298 0.424759 0.310446
0.613892 0.453353 0.332915
0.729811 0.467730 0.341192
0.849746 0.466223 0.340873
0.932622 0.461242 0.348680
0.410857 0.418776 0.236324
0.459222 0.434615 0.273598
0.511961 0.457355 0.313298
0.569271 0.486024 0.350344
0.640009 0.515375 0.379553
0.736653 0.536183 0.397349
0.846716 0.540491 0.405906
0.933102 0.534746 0.416806
0.435994 0.494757 0.252709
0.489064 0.510373 0.293722
0.547094 0.529045 0.338965
0.606746 0.551592 0.382563
0.669659 0.576605 0.418972
0.747912 0.598527 0.446165
0.842974 0.607475 0.464037
0.930304 0.603074 0.478439
0.459336 0.560418 0.269483
0.512579 0.575613 0.309091
0.574042 0.593723 0.356739
0.637108 0.613999 0.405139
0.698642 0.635402 0.448762
0.764516 0.655772 0.485042
0.842846 0.668501 0.511077
0.926227 0.668572 0.528368
0.482468 0.608066 0.289571
0.533655 0.622446 0.325570
0.596215 0.641211 0.372564
0.661612 0.662369 0.423207
0.724545 0.683842 0.471781
0.785349 0.704392 0.514878
0.850076 0.720662 0.546902
0.923525 0.728082 0.566181
0.500000 0.637168 0.308655
0.552324 0.650417 0.343032
0.615778 0.669792 0.390320
0.682553 0.692408 0.442342
0.747189 0.715979 0.493763
0.807582 0.739431 0.540684
0.864918 0.760033 0.576707
0.926033 0.775286 0.598559
0.339949 0.274723 0.187000
0.386975 0.312553 0.221156
0.437692 0.346402 0.252680
0.503856 0.369845 0.275775
0.596899 0.379242 0.285665
0.714827 0.376324 0.282434
0.834571 0.363929 0.269810
0.920967 0.355940 0.263105
0.390723 0.322575 0.225550
0.431064 0.353112 0.256089
0.473604 0.384893 0.286106
0.529796 0.414251 0.312499
0.612634 0.435573 0.330959
0.723299 0.445486 0.338525
0.842333 0.444439 0.336130
0.931668 0.441049 0.334585
0.433909 0.383034 0.258141
0.472729 0.403009 0.289118
0.517388 0.434222 0.323470
0.567537 0.467164 0.354509
0.636723 0.495745 0.379972
0.734319 0.515295 0.397157
0.846656 0.522194 0.403469
0.936802 0.521892 0.406651
0.461572 0.452995 0.279632
0.508302 0.465829 0.316740
0.557697 0.489455 0.356637
0.608771 0.521213 0.394258
0.667575 0.552577 0.425703
0.748723 0.577990 0.450466
0.849654 0.591503 0.465642
0.938137 0.593876 0.474702
0.478710 0.523058 0.292024
0.535564 0.533903 0.337051
0.591766 0.550583 0.383671
0.646187 0.575799 0.427224
0.700668 0.605222 0.464338
0.767193 0.632046 0.494867
0.852576 0.649638 0.518032
0.936657 0.654975 0.534320
0.490458 0.582399 0.299505
0.554999 0.594288 0.350207
0.619032 0.609762 0.403263
0.678368 0.630273 0.452315
0.733337 0.655326 0.494829
0.790502 0.680574 0.530888
0.858618 0.699681 0.560393
0.934099 0.707736 0.582652
0.498576 0.622477 0.307134
0.568754 0.636911 0.358450
0.639581 0.655200 0.415462
0.705233 0.676492 0.469791
0.764342 0.699934 0.517791
0.818442 0.724088 0.559471
0.871786 0.744692 0.593530
0.933270 0.755842 0.618532
0.503868 0.643280 0.315393
0.579709 0.659855 0.365614
0.655998 0.682718 0.425109
0.727779 0.707211 0.483465
0.792158 0.733213 0.536700
0.848061 0.759903 0.583656
0.894506 0.783484 0.621563
0.939174 0.799419 0.647597
