Amelie.cube
# Enhanced with VOXCOLOR algorithms
LUT_3D_SIZE 32
0.047059 0.086275 0.007843
0.065355 0.087585 0.007843
0.083650 0.088896 0.007843
0.106780 0.088656 0.007855
0.130256 0.088306 0.007867
0.159442 0.088702 0.007974
0.189507 0.089213 0.008095
0.223947 0.089579 0.008461
0.259480 0.089909 0.008889
0.297218 0.090057 0.009567
0.335757 0.090138 0.010337
0.375030 0.090143 0.011228
0.414670 0.090111 0.012182
0.453909 0.090030 0.013161
0.492882 0.089917 0.014159
0.530660 0.089774 0.015137
0.567393 0.089607 0.016099
0.602653 0.089412 0.017028
0.636230 0.089188 0.017921
0.668452 0.088909 0.018818
0.698643 0.088546 0.019723
0.727718 0.088141 0.020681
0.754562 0.087654 0.021742
0.780520 0.087199 0.022839
0.804042 0.086834 0.024033
0.826846 0.086519 0.025239
0.846774 0.086402 0.026497
0.865974 0.086299 0.027779
0.880430 0.086287 0.029223
0.894688 0.086275 0.030598
0.906168 0.086275 0.030985
0.917647 0.086275 0.031373
0.050490 0.093026 0.009208
0.067846 0.095348 0.009204
0.085203 0.097671 0.009200
0.107873 0.098307 0.009411
0.130923 0.098822 0.009638
0.159845 0.099431 0.009954
0.189670 0.100054 0.010282
0.223633 0.100474 0.010748
0.258630 0.100843 0.011248
0.295660 0.101045 0.011900
0.333428 0.101186 0.012608
0.371919 0.101230 0.013398
0.410770 0.101227 0.014230
0.449283 0.101136 0.015087
0.487572 0.100986 0.015960
0.524787 0.100746 0.016830
0.561063 0.100427 0.017697
0.596015 0.100010 0.018563
0.629452 0.099482 0.019428
0.661646 0.098846 0.020325
0.691977 0.098049 0.021272
0.721250 0.097188 0.022281
0.748408 0.096200 0.023410
0.774702 0.095231 0.024574
0.798620 0.094310 0.025833
0.821826 0.093417 0.027087
0.842185 0.092637 0.028323
0.861861 0.091850 0.029559
0.877097 0.091017 0.030789
0.892110 0.090198 0.031975
0.903987 0.089575 0.032531
0.915864 0.088953 0.033087
0.053921 0.099777 0.010574
0.070338 0.103112 0.010566
0.086755 0.106446 0.010557
0.108966 0.107957 0.010968
0.131591 0.109338 0.011409
0.160248 0.110159 0.011933
0.189833 0.110895 0.012470
0.223319 0.111369 0.013035
0.257780 0.111777 0.013606
0.294101 0.112033 0.014232
0.331100 0.112233 0.014879
0.368807 0.112318 0.015568
0.406870 0.112344 0.016279
0.444658 0.112242 0.017013
0.482262 0.112055 0.017761
0.518914 0.111717 0.018523
0.554734 0.111247 0.019295
0.589376 0.110608 0.020097
0.622674 0.109776 0.020934
0.654841 0.108783 0.021832
0.685311 0.107551 0.022821
0.714783 0.106234 0.023880
0.742255 0.104747 0.025078
0.768885 0.103263 0.026309
0.793198 0.101786 0.027632
0.816807 0.100316 0.028934
0.837595 0.098872 0.030150
0.857748 0.097400 0.031340
0.873765 0.095747 0.032355
0.889532 0.094121 0.033351
0.901806 0.092876 0.034076
0.914081 0.091630 0.034801
0.058471 0.107806 0.012667
0.074505 0.111205 0.012519
0.090538 0.114604 0.012372
0.112224 0.116988 0.012666
0.134313 0.119299 0.012992
0.162658 0.120837 0.013550
0.191966 0.122256 0.014143
0.225108 0.123216 0.014765
0.259209 0.124061 0.015394
0.294996 0.124605 0.016040
0.331395 0.125039 0.016692
0.368376 0.125256 0.017354
0.405649 0.125366 0.018021
0.442643 0.125281 0.018723
0.479452 0.125067 0.019448
0.515393 0.124654 0.020228
0.550574 0.124065 0.021057
0.584668 0.123268 0.021945
0.617519 0.122234 0.022901
0.649302 0.121024 0.023920
0.679484 0.119549 0.025033
0.708719 0.117976 0.026200
0.736058 0.116208 0.027476
0.762595 0.114400 0.028765
0.786924 0.112479 0.030090
0.810581 0.110518 0.031378
0.831554 0.108397 0.032520
0.851960 0.106238 0.033617
0.868686 0.103827 0.034413
0.885192 0.101450 0.035192
0.898625 0.099545 0.035712
0.912058 0.097639 0.036233
0.063102 0.115926 0.014811
0.078791 0.119323 0.014515
0.094480 0.122719 0.014220
0.115636 0.125974 0.014374
0.137182 0.129220 0.014560
0.165212 0.131510 0.015140
0.194239 0.133654 0.015780
0.227048 0.135131 0.016456
0.260802 0.136441 0.017141
0.296065 0.137289 0.017810
0.331877 0.137970 0.018472
0.368136 0.138328 0.019112
0.404619 0.138524 0.019740
0.440815 0.138458 0.020417
0.476820 0.138219 0.021126
0.512039 0.137731 0.021935
0.546570 0.137025 0.022830
0.580098 0.136075 0.023815
0.612479 0.134847 0.024900
0.643854 0.133429 0.026049
0.673717 0.131725 0.027292
0.702684 0.129911 0.028572
0.729859 0.127878 0.029926
0.756271 0.125759 0.031271
0.780588 0.123402 0.032594
0.804270 0.120956 0.033865
0.825409 0.118158 0.034929
0.846053 0.115311 0.035929
0.863482 0.112147 0.036507
0.880726 0.109023 0.037065
0.895372 0.106455 0.037355
0.910019 0.103886 0.037645
0.068086 0.122883 0.016501
0.083816 0.126938 0.016409
0.099545 0.130992 0.016316
0.120722 0.134999 0.016547
0.142288 0.139002 0.016801
0.170303 0.141958 0.017347
0.199311 0.144753 0.017937
0.232000 0.146789 0.018565
0.265610 0.148635 0.019201
0.300478 0.149941 0.019850
0.335803 0.151051 0.020504
0.371332 0.151780 0.021172
0.406963 0.152319 0.021847
0.442205 0.152553 0.022606
0.477187 0.152585 0.023420
0.511404 0.152331 0.024357
0.544951 0.151828 0.025401
0.577564 0.151050 0.026534
0.609109 0.149958 0.027768
0.639715 0.148642 0.029046
0.668912 0.146992 0.030387
0.697278 0.145182 0.031748
0.723982 0.143052 0.033150
0.749999 0.140776 0.034541
0.774126 0.138099 0.035903
0.797682 0.135302 0.037211
0.818954 0.132023 0.038304
0.839760 0.128690 0.039322
0.857533 0.125000 0.039848
0.875136 0.121339 0.040353
0.890380 0.118089 0.040558
0.905624 0.114839 0.040763
0.073125 0.129661 0.018122
0.088954 0.134475 0.018286
0.104782 0.139289 0.018450
0.126065 0.144029 0.018791
0.147738 0.148763 0.019144
0.175785 0.152371 0.019648
0.204813 0.155807 0.020176
0.237416 0.158408 0.020738
0.270912 0.160801 0.021309
0.305405 0.162589 0.021932
0.340259 0.164155 0.022574
0.375057 0.165291 0.023278
0.409827 0.166212 0.024014
0.444090 0.166789 0.024871
0.478015 0.167137 0.025808
0.511187 0.167166 0.026888
0.543699 0.166914 0.028094
0.575343 0.166357 0.029383
0.605996 0.165452 0.030770
0.635778 0.164288 0.032175
0.664254 0.162735 0.033610
0.691968 0.160967 0.035048
0.718155 0.158765 0.036493
0.743735 0.156356 0.037927
0.767644 0.153377 0.039335
0.791051 0.150248 0.040689
0.812453 0.146520 0.041828
0.833408 0.142731 0.042881
0.851468 0.138549 0.043381
0.869374 0.134384 0.043858
0.885120 0.130450 0.044001
0.900866 0.126517 0.044144
0.078860 0.136537 0.020004
0.094766 0.142057 0.020515
0.110671 0.147577 0.021026
0.132037 0.153009 0.021567
0.153794 0.158436 0.022111
0.181963 0.162699 0.022637
0.211119 0.166784 0.023161
0.243854 0.169996 0.023686
0.277484 0.172989 0.024212
0.311931 0.175338 0.024809
0.346674 0.177452 0.025431
0.381050 0.179109 0.026154
0.415243 0.180537 0.026927
0.448674 0.181603 0.027849
0.481597 0.182427 0.028872
0.513664 0.182915 0.030051
0.544983 0.183107 0.031366
0.575450 0.182975 0.032769
0.604946 0.182472 0.034272
0.633634 0.181679 0.035792
0.661114 0.180449 0.037338
0.687906 0.178951 0.038887
0.713324 0.176916 0.040441
0.738215 0.174619 0.041990
0.761658 0.171603 0.043523
0.784665 0.168408 0.045001
0.805930 0.164497 0.046256
0.826782 0.160509 0.047418
0.844943 0.156023 0.047977
0.862965 0.151528 0.048511
0.879030 0.146931 0.048691
0.895095 0.142335 0.048872
0.084768 0.143438 0.021953
0.100746 0.149650 0.022833
0.116724 0.155862 0.023713
0.138167 0.161977 0.024477
0.160000 0.168086 0.025233
0.188315 0.173006 0.025798
0.217626 0.177743 0.026334
0.250549 0.181575 0.026829
0.284374 0.185182 0.027313
0.318857 0.188112 0.027883
0.353579 0.190796 0.028485
0.387610 0.193003 0.029222
0.421296 0.194970 0.030026
0.453932 0.196562 0.031007
0.485866 0.197902 0.032105
0.516815 0.198892 0.033371
0.546900 0.199576 0.034784
0.576139 0.199920 0.036289
0.604411 0.199874 0.037900
0.631939 0.199506 0.039531
0.658352 0.198656 0.041192
0.684156 0.197486 0.042859
0.708742 0.195676 0.044540
0.732882 0.193552 0.046221
0.755796 0.190565 0.047900
0.778340 0.187371 0.049521
0.799403 0.183344 0.050910
0.820086 0.179222 0.052198
0.838303 0.174477 0.052838
0.856395 0.169698 0.053451
0.872733 0.164443 0.053694
0.889071 0.159188 0.053936
0.091315 0.150874 0.024471
0.107358 0.157643 0.025707
0.123402 0.164412 0.026944
0.144819 0.171146 0.027931
0.166620 0.177878 0.028900
0.194858 0.183447 0.029583
0.224086 0.188837 0.030222
0.257070 0.193289 0.030755
0.290992 0.197507 0.031261
0.325669 0.201030 0.031817
0.360620 0.204301 0.032390
0.394689 0.207084 0.033099
0.428315 0.209623 0.033877
0.460557 0.211773 0.034848
0.491875 0.213663 0.035950
0.521966 0.215199 0.037239
0.550983 0.216423 0.038691
0.579071 0.217305 0.040254
0.606096 0.217798 0.041944
0.632397 0.217960 0.043675
0.657611 0.217628 0.045468
0.682279 0.216951 0.047280
0.705856 0.215584 0.049133
0.729060 0.213872 0.050987
0.751241 0.211209 0.052842
0.773108 0.208311 0.054637
0.793719 0.204479 0.056195
0.813990 0.200527 0.057650
0.832060 0.195808 0.058434
0.850023 0.191022 0.059191
0.866507 0.185309 0.059578
0.882991 0.179597 0.059966
0.098094 0.158504 0.027197
0.114201 0.165781 0.028784
0.130307 0.173058 0.030372
0.151661 0.180388 0.031582
0.173389 0.187722 0.032765
0.201471 0.193938 0.033595
0.230530 0.199981 0.034370
0.263528 0.205052 0.034966
0.297512 0.209880 0.035517
0.332440 0.214001 0.036062
0.367712 0.217864 0.036605
0.401956 0.221233 0.037271
0.435685 0.224354 0.038000
0.467679 0.227075 0.038939
0.498515 0.229529 0.040018
0.527844 0.231625 0.041306
0.555853 0.233406 0.042776
0.582818 0.234851 0.044381
0.608590 0.235911 0.046140
0.633639 0.236642 0.047968
0.657605 0.236877 0.049897
0.681083 0.236753 0.051864
0.703586 0.235911 0.053906
0.725788 0.234697 0.055947
0.747162 0.232463 0.057988
0.768275 0.229971 0.059969
0.788341 0.226444 0.061711
0.808111 0.222776 0.063346
0.825960 0.218185 0.064297
0.843724 0.213493 0.065222
0.860307 0.207396 0.065784
0.876891 0.201298 0.066345
0.105528 0.166892 0.030498
0.121780 0.174616 0.032370
0.138032 0.182339 0.034242
0.159322 0.190210 0.035665
0.180971 0.198090 0.037056
0.208653 0.204873 0.038080
0.237263 0.211486 0.039048
0.269946 0.217108 0.039770
0.303649 0.222481 0.040429
0.338630 0.227145 0.041003
0.374076 0.231552 0.041545
0.408564 0.235458 0.042167
0.442572 0.239114 0.042828
0.474627 0.242361 0.043696
0.505379 0.245335 0.044703
0.534340 0.247955 0.045938
0.561734 0.250265 0.047373
0.587899 0.252257 0.048975
0.612659 0.253888 0.050768
0.636637 0.255209 0.052665
0.659443 0.256067 0.054720
0.681783 0.256572 0.056834
0.703190 0.256375 0.059068
0.724344 0.255800 0.061303
0.744801 0.254188 0.063542
0.765042 0.252304 0.065724
0.784413 0.249337 0.067682
0.803527 0.246211 0.069538
0.820967 0.242059 0.070728
0.838337 0.237780 0.071894
0.854741 0.231726 0.072715
0.871145 0.225671 0.073536
0.113288 0.175658 0.034087
0.129727 0.183799 0.036210
0.146166 0.191939 0.038334
0.167392 0.200321 0.039965
0.188959 0.208720 0.041560
0.216119 0.216030 0.042803
0.244140 0.223172 0.043991
0.276344 0.229310 0.044869
0.309594 0.235196 0.045669
0.344529 0.240377 0.046291
0.380075 0.245302 0.046848
0.414842 0.249721 0.047424
0.449219 0.253887 0.048009
0.481489 0.257638 0.048788
0.512356 0.261111 0.049696
0.541146 0.264238 0.050853
0.568121 0.267061 0.052226
0.593646 0.269594 0.053803
0.617515 0.271796 0.055612
0.640513 0.273719 0.057566
0.662204 0.275226 0.059739
0.683431 0.276400 0.061997
0.703731 0.276907 0.064425
0.723814 0.277041 0.066857
0.743300 0.276147 0.069299
0.762609 0.274975 0.071691
0.781210 0.272693 0.073882
0.799589 0.270241 0.075977
0.816527 0.266683 0.077444
0.833408 0.262975 0.078888
0.849491 0.257178 0.080010
0.865575 0.251380 0.081132
0.121837 0.185157 0.038196
0.138502 0.193720 0.040509
0.155167 0.202284 0.042822
0.176345 0.211119 0.044654
0.197845 0.219974 0.046451
0.224390 0.227722 0.047919
0.251712 0.235300 0.049336
0.283203 0.241878 0.050396
0.315737 0.248207 0.051367
0.350310 0.253835 0.052082
0.385626 0.259208 0.052703
0.420458 0.264070 0.053272
0.455049 0.268675 0.053815
0.487571 0.272860 0.054516
0.518713 0.276764 0.055322
0.547605 0.280334 0.056380
0.574529 0.283610 0.057660
0.599784 0.286628 0.059175
0.623131 0.289351 0.060961
0.645468 0.291834 0.062934
0.666287 0.293958 0.065189
0.686595 0.295780 0.067557
0.705883 0.296998 0.070150
0.724958 0.297861 0.072756
0.743449 0.297751 0.075397
0.761793 0.297372 0.077998
0.779546 0.295919 0.080440
0.797106 0.294296 0.082798
0.813409 0.291562 0.084604
0.829660 0.288667 0.086388
0.845183 0.283514 0.087864
0.860705 0.278362 0.089340
0.130913 0.195144 0.042652
0.147828 0.204134 0.045113
0.164744 0.213125 0.047575
0.185887 0.222375 0.049604
0.207331 0.231643 0.051602
0.233199 0.239771 0.053298
0.259746 0.247724 0.054947
0.290369 0.254692 0.056207
0.322010 0.261413 0.057370
0.356014 0.267442 0.058207
0.390878 0.273219 0.058927
0.425634 0.278476 0.059515
0.460336 0.283473 0.060039
0.493131 0.288045 0.060669
0.524656 0.292335 0.061369
0.553831 0.296304 0.062316
0.580951 0.299994 0.063480
0.606182 0.303460 0.064910
0.629255 0.306671 0.066647
0.651142 0.309686 0.068613
0.671252 0.312407 0.070925
0.690771 0.314864 0.073380
0.709108 0.316794 0.076120
0.727218 0.318401 0.078885
0.744699 0.319119 0.081722
0.762055 0.319587 0.084532
0.778910 0.319059 0.087237
0.795594 0.318368 0.089874
0.811173 0.316612 0.092061
0.826700 0.314691 0.094227
0.841501 0.310441 0.096092
0.856303 0.306192 0.097957
0.140877 0.205748 0.047519
0.158006 0.215207 0.050142
0.175135 0.224666 0.052765
0.196220 0.234274 0.054989
0.217587 0.243893 0.057184
0.242799 0.252352 0.059091
0.268603 0.260633 0.060954
0.298301 0.267946 0.062405
0.328972 0.275017 0.063752
0.362200 0.281396 0.064731
0.396357 0.287523 0.065577
0.430763 0.293120 0.066228
0.465292 0.298453 0.066781
0.498188 0.303353 0.067381
0.529993 0.307966 0.068013
0.559484 0.312269 0.068867
0.586951 0.316300 0.069917
0.612379 0.320138 0.071252
0.635478 0.323758 0.072913
0.657210 0.327222 0.074841
0.676892 0.330454 0.077169
0.695865 0.333465 0.079670
0.713421 0.336034 0.082514
0.730704 0.338321 0.085402
0.747238 0.339832 0.088411
0.763652 0.341124 0.091410
0.779586 0.341541 0.094367
0.795368 0.341813 0.097275
0.810156 0.341144 0.099863
0.824892 0.340309 0.102431
0.838893 0.337159 0.104706
0.852895 0.334010 0.106981
0.151619 0.216894 0.052748
0.168928 0.226856 0.055544
0.186237 0.236818 0.058340
0.207245 0.246736 0.060755
0.228517 0.256651 0.063144
0.253094 0.265399 0.065247
0.278179 0.273968 0.067306
0.306904 0.281587 0.068939
0.336538 0.288968 0.070466
0.368807 0.295653 0.071604
0.402035 0.302084 0.072600
0.435850 0.307973 0.073350
0.469961 0.313592 0.073977
0.502803 0.318769 0.074585
0.534799 0.323651 0.075178
0.564635 0.328227 0.075956
0.592581 0.332537 0.076894
0.618401 0.336683 0.078124
0.641790 0.340640 0.079687
0.663623 0.344482 0.081548
0.683122 0.348151 0.083857
0.701762 0.351645 0.086367
0.718684 0.354789 0.089280
0.735264 0.357700 0.092259
0.750905 0.359973 0.095420
0.766416 0.362067 0.098589
0.781412 0.363447 0.101788
0.796267 0.364711 0.104961
0.810206 0.365220 0.107967
0.824091 0.365571 0.110953
0.837225 0.363694 0.113658
0.850359 0.361817 0.116362
0.163207 0.228697 0.058333
0.180644 0.239192 0.061365
0.198082 0.249687 0.064396
0.218974 0.259899 0.067015
0.240113 0.270091 0.069604
0.264097 0.279100 0.071882
0.288518 0.287928 0.074113
0.316291 0.295807 0.075901
0.344901 0.303450 0.077579
0.376130 0.310382 0.078860
0.408309 0.317054 0.079998
0.441344 0.323174 0.080862
0.474807 0.329017 0.081588
0.507370 0.334409 0.082238
0.539335 0.339499 0.082838
0.569371 0.344288 0.083574
0.597720 0.348812 0.084429
0.623944 0.353196 0.085568
0.647740 0.357419 0.087031
0.669837 0.361563 0.088814
0.689386 0.365591 0.091077
0.707924 0.369488 0.093568
0.724442 0.373125 0.096515
0.740528 0.376581 0.099553
0.755428 0.379534 0.102840
0.770169 0.382351 0.106153
0.784273 0.384620 0.109566
0.798240 0.386807 0.112976
0.811315 0.388463 0.116370
0.824337 0.389968 0.119747
0.836615 0.389377 0.122890
0.848893 0.388786 0.126034
0.175761 0.241253 0.064327
0.193269 0.252313 0.067665
0.210776 0.263374 0.071003
0.231507 0.273863 0.073837
0.252469 0.284312 0.076635
0.275908 0.293550 0.079066
0.299729 0.302602 0.081441
0.326575 0.310691 0.083351
0.354177 0.318539 0.085146
0.384269 0.325650 0.086555
0.415267 0.332494 0.087825
0.447302 0.338772 0.088818
0.479856 0.344768 0.089673
0.511885 0.350305 0.090407
0.543563 0.355535 0.091061
0.573634 0.360464 0.091796
0.602298 0.365130 0.092601
0.628942 0.369674 0.093666
0.653277 0.374079 0.095028
0.675824 0.378440 0.096719
0.695688 0.382735 0.098905
0.714389 0.386945 0.101344
0.730764 0.390985 0.104287
0.746595 0.394892 0.107347
0.760930 0.398434 0.110731
0.775052 0.401883 0.114157
0.788316 0.404956 0.117753
0.801438 0.407988 0.121369
0.813633 0.410751 0.125115
0.825777 0.413376 0.128850
0.837214 0.414087 0.132444
0.848652 0.414797 0.136038
0.188942 0.254450 0.070679
0.206511 0.266125 0.074383
0.224080 0.277800 0.078088
0.244625 0.288611 0.081165
0.265383 0.299360 0.084198
0.288284 0.308798 0.086768
0.311514 0.318035 0.089266
0.337441 0.326263 0.091268
0.364043 0.334240 0.093146
0.392983 0.341445 0.094653
0.422773 0.348371 0.096025
0.453729 0.354721 0.097130
0.485267 0.360782 0.098103
0.516605 0.366387 0.098925
0.547811 0.371687 0.099647
0.577734 0.376696 0.100401
0.606535 0.381450 0.101182
0.633479 0.386104 0.102195
0.658301 0.390646 0.103474
0.681316 0.395180 0.105085
0.701618 0.399702 0.107194
0.720640 0.404181 0.109574
0.737102 0.408577 0.112499
0.752901 0.412883 0.115568
0.766876 0.416945 0.119031
0.780564 0.420948 0.122552
0.793100 0.424717 0.126306
0.805476 0.428478 0.130099
0.816814 0.432191 0.134142
0.828105 0.435783 0.138184
0.838731 0.437678 0.142215
0.849357 0.439573 0.146245
0.203060 0.268609 0.077566
0.220679 0.280971 0.081727
0.238298 0.293334 0.085889
0.258620 0.304533 0.089253
0.279135 0.315650 0.092561
0.301506 0.325244 0.095247
0.324162 0.334605 0.097836
0.349183 0.342869 0.099884
0.374795 0.350858 0.101796
0.402558 0.358030 0.103354
0.431102 0.364905 0.104785
0.460858 0.371194 0.105978
0.491219 0.377191 0.107052
0.521636 0.382748 0.107967
0.552090 0.388012 0.108777
0.581592 0.393009 0.109580
0.610260 0.397772 0.110377
0.637325 0.402464 0.111373
0.662555 0.407076 0.112596
0.686064 0.411716 0.114143
0.706990 0.416401 0.116172
0.726572 0.421085 0.118487
0.743464 0.425767 0.121373
0.759564 0.430395 0.124428
0.773488 0.434874 0.127946
0.787021 0.439316 0.131535
0.798994 0.443616 0.135408
0.810773 0.447932 0.139333
0.821291 0.452360 0.143591
0.831765 0.456687 0.147862
0.841623 0.459592 0.152309
0.851481 0.462497 0.156757
0.217491 0.283131 0.084734
0.235210 0.296313 0.089420
0.252929 0.309494 0.094106
0.273020 0.321160 0.097809
0.293280 0.332718 0.101442
0.315098 0.342448 0.104249
0.337155 0.351896 0.106928
0.361262 0.360127 0.109004
0.385882 0.368053 0.110929
0.412479 0.375113 0.112509
0.439796 0.381858 0.113965
0.468351 0.388007 0.115206
0.497525 0.393857 0.116340
0.526962 0.399290 0.117315
0.556575 0.404446 0.118184
0.585535 0.409367 0.119022
0.613923 0.414085 0.119833
0.640970 0.418767 0.120819
0.666485 0.423409 0.122005
0.690411 0.428121 0.123504
0.711952 0.432939 0.125472
0.732126 0.437797 0.127735
0.749566 0.442737 0.130589
0.766100 0.447653 0.133634
0.780142 0.452502 0.137200
0.793688 0.457330 0.140849
0.805249 0.462071 0.144828
0.816571 0.466841 0.148866
0.826345 0.471806 0.153290
0.836076 0.476691 0.157741
0.845220 0.480454 0.162551
0.854363 0.484217 0.167361
0.232545 0.298382 0.092467
0.250466 0.312643 0.097811
0.268386 0.326905 0.103156
0.288232 0.339196 0.107300
0.308215 0.351346 0.111358
0.329432 0.361166 0.114297
0.350839 0.370628 0.117063
0.374016 0.378690 0.119133
0.397635 0.386403 0.121029
0.423094 0.393194 0.122571
0.449223 0.399651 0.123983
0.476574 0.405497 0.125195
0.504536 0.411038 0.126306
0.532878 0.416195 0.127273
0.561473 0.421096 0.128144
0.589649 0.425816 0.128990
0.617459 0.430378 0.129812
0.644216 0.434955 0.130803
0.669768 0.439549 0.131986
0.693954 0.444262 0.133472
0.716093 0.449155 0.135412
0.736926 0.454129 0.137652
0.755150 0.459267 0.140489
0.772382 0.464402 0.143530
0.786884 0.469532 0.147135
0.800776 0.474636 0.150829
0.812226 0.479639 0.154881
0.823374 0.484661 0.158993
0.832554 0.489805 0.163488
0.841690 0.494895 0.168021
0.850225 0.499211 0.173087
0.858760 0.503528 0.178152
0.247634 0.313690 0.100345
0.265847 0.329191 0.106436
0.284060 0.344693 0.112527
0.303673 0.357691 0.117192
0.323386 0.370510 0.121756
0.343991 0.380427 0.124867
0.364733 0.389898 0.127755
0.386986 0.397763 0.129823
0.409618 0.405225 0.131686
0.433960 0.411708 0.133160
0.458925 0.417834 0.134492
0.485087 0.423330 0.135623
0.511847 0.428511 0.136654
0.539081 0.433332 0.137557
0.566631 0.437914 0.138376
0.593974 0.442367 0.139186
0.621137 0.446709 0.139988
0.647519 0.451120 0.140962
0.673009 0.455610 0.142132
0.697360 0.460271 0.143601
0.720003 0.465186 0.145517
0.741425 0.470227 0.147735
0.760403 0.475517 0.150558
0.778331 0.480829 0.153599
0.793371 0.486200 0.157244
0.807701 0.491544 0.160987
0.819197 0.496775 0.165128
0.830321 0.502009 0.169324
0.839029 0.507261 0.173875
0.847691 0.512480 0.178474
0.855697 0.517250 0.183733
0.863703 0.522019 0.188992
0.262818 0.329160 0.108624
0.281575 0.346337 0.115703
0.300331 0.363515 0.122782
0.319747 0.377449 0.128189
0.339210 0.391151 0.133477
0.359171 0.401182 0.136875
0.379208 0.410649 0.139982
0.400556 0.418234 0.142057
0.422232 0.425349 0.143876
0.445515 0.431413 0.145201
0.469383 0.437095 0.146348
0.494396 0.442106 0.147257
0.519981 0.446783 0.148048
0.546075 0.451106 0.148735
0.572507 0.455193 0.149353
0.598881 0.459202 0.150011
0.625203 0.463145 0.150705
0.650981 0.467222 0.151602
0.676136 0.471454 0.152734
0.700386 0.475913 0.154173
0.723282 0.480712 0.156072
0.745095 0.485683 0.158276
0.764746 0.490999 0.161093
0.783366 0.496366 0.164142
0.799154 0.501878 0.167832
0.814178 0.507360 0.171638
0.826147 0.512725 0.175907
0.837663 0.518062 0.180217
0.846238 0.523219 0.184784
0.854755 0.528362 0.189398
0.862450 0.533309 0.194681
0.870145 0.538257 0.199964
0.277818 0.344449 0.116883
0.297209 0.363442 0.125063
0.316601 0.382434 0.133244
0.335871 0.397386 0.139476
0.355134 0.412048 0.145570
0.374481 0.422245 0.149308
0.393842 0.431754 0.152685
0.414302 0.439073 0.154783
0.435037 0.445845 0.156563
0.457264 0.451471 0.157719
0.480033 0.456680 0.158648
0.503889 0.461166 0.159292
0.528289 0.465291 0.159792
0.553232 0.469058 0.160211
0.578537 0.472587 0.160577
0.603931 0.476088 0.161033
0.629402 0.479566 0.161568
0.654551 0.483246 0.162344
0.679332 0.487158 0.163394
0.703428 0.491356 0.164763
0.726497 0.495981 0.166609
0.748623 0.500827 0.168768
0.768863 0.506114 0.171555
0.788112 0.511491 0.174595
0.804636 0.517116 0.178328
0.820361 0.522720 0.182202
0.832894 0.528239 0.186636
0.844898 0.533703 0.191098
0.853466 0.538811 0.195738
0.861960 0.543917 0.200424
0.869421 0.549016 0.205731
0.876881 0.554115 0.211039
0.292080 0.359018 0.125059
0.312471 0.380379 0.134794
0.332861 0.401740 0.144530
0.352198 0.418037 0.151924
0.371459 0.433973 0.159150
0.390317 0.444537 0.163448
0.409113 0.454273 0.167296
0.428755 0.461380 0.169477
0.448609 0.467830 0.171242
0.469788 0.472941 0.172141
0.491449 0.477565 0.172724
0.514118 0.481359 0.172926
0.537290 0.484739 0.172938
0.561044 0.487722 0.172884
0.585187 0.490441 0.172787
0.609558 0.493176 0.172840
0.634129 0.495925 0.173023
0.658553 0.498955 0.173492
0.682807 0.502305 0.174288
0.706531 0.506003 0.175425
0.729461 0.510223 0.177076
0.751580 0.514718 0.179064
0.772078 0.519764 0.181726
0.791698 0.524965 0.184684
0.808906 0.530596 0.188456
0.825366 0.536252 0.192422
0.838830 0.542009 0.197164
0.851708 0.547696 0.201932
0.860769 0.552935 0.206878
0.869729 0.558168 0.211849
0.877263 0.563312 0.217186
0.884797 0.568457 0.222522
0.306110 0.373108 0.132960
0.327523 0.397050 0.144409
0.348935 0.420993 0.155858
0.368418 0.438749 0.164487
0.387764 0.456064 0.172915
0.406167 0.467055 0.177805
0.424425 0.477072 0.182152
0.443252 0.483976 0.184427
0.462221 0.490100 0.186184
0.482339 0.494656 0.186808
0.502875 0.498641 0.187020
0.524350 0.501682 0.186747
0.546295 0.504252 0.186232
0.568872 0.506395 0.185666
0.591871 0.508252 0.185067
0.615232 0.510175 0.184673
0.638912 0.512153 0.184460
0.662607 0.514493 0.184578
0.686319 0.517245 0.185076
0.709651 0.520411 0.185946
0.732412 0.524196 0.187373
0.754493 0.528312 0.189168
0.775212 0.533090 0.191701
