Amelie.cube
# Enhanced with VOXCOLOR algorithms
LUT_3D_SIZE 5
DOMAIN_MIN 0.000000 0.000000 0.000000
DOMAIN_MAX 0.903226 0.903226 0.903226
0.047059 0.086275 0.007843
0.223947 0.089579 0.008461
0.492882 0.089917 0.014159
0.727718 0.088141 0.020681
0.880430 0.086287 0.029223
0.078860 0.136537 0.020004
0.243854 0.169996 0.023686
0.481597 0.182427 0.028872
0.687906 0.178951 0.038887
0.844943 0.156023 0.047977
0.130913 0.195144 0.042652
0.290369 0.254692 0.056207
0.524656 0.292335 0.061369
0.690771 0.314864 0.073380
0.811173 0.316612 0.092061
0.217491 0.283131 0.084734
0.361262 0.360127 0.109004
0.556575 0.404446 0.118184
0.732126 0.437797 0.127735
0.826345 0.471806 0.153290
0.318630 0.384088 0.139070
0.458039 0.508443 0.201038
0.598772 0.525780 0.197793
0.757119 0.539979 0.198024
0.874090 0.578739 0.227850
0.088694 0.098345 0.041994
0.213138 0.122282 0.057527
0.506626 0.123456 0.054881
0.753314 0.115915 0.060799
0.891851 0.109070 0.070528
0.126202 0.181715 0.055517
0.247361 0.234291 0.082467
0.497463 0.244462 0.093304
0.731095 0.228431 0.103953
0.885490 0.205032 0.118778
0.205084 0.287953 0.089773
0.308766 0.349490 0.119244
0.515059 0.384637 0.133407
0.720764 0.393325 0.142760
0.860697 0.382560 0.165006
0.308998 0.404470 0.147507
0.391578 0.462614 0.180725
0.551231 0.499597 0.196527
0.742784 0.519356 0.199843
0.863041 0.539779 0.218308
0.427141 0.542001 0.234119
0.476812 0.576223 0.263367
0.587176 0.599015 0.279702
0.755872 0.603751 0.273351
0.888731 0.620432 0.277917
0.150183 0.126803 0.076534
0.248174 0.173164 0.107123
0.502787 0.193309 0.110086
0.769451 0.175504 0.107189
0.898628 0.166727 0.120069
0.212313 0.226567 0.106203
0.309445 0.273193 0.151056
0.504126 0.313786 0.179822
0.751819 0.305437 0.185292
0.906625 0.285846 0.201380
0.287052 0.368105 0.140726
0.378990 0.419684 0.189104
0.535590 0.455471 0.237274
0.741438 0.459754 0.258658
0.902456 0.439039 0.284748
0.385135 0.497917 0.204747
0.455121 0.539021 0.247182
0.578662 0.573768 0.299377
0.747762 0.592403 0.323310
0.892877 0.599700 0.340885
0.474596 0.603301 0.280743
0.523713 0.625919 0.314477
0.622813 0.654772 0.369085
0.760540 0.672232 0.394153
0.902537 0.687343 0.398872
0.224319 0.178035 0.115932
0.324611 0.246712 0.168485
0.510574 0.288462 0.197242
0.769466 0.271923 0.178761
0.912723 0.259058 0.186650
0.320525 0.290874 0.173340
0.401597 0.333594 0.226438
0.538237 0.390911 0.273884
0.761736 0.407548 0.279779
0.924681 0.394011 0.290739
0.382451 0.431044 0.210269
0.476325 0.467193 0.278361
0.592222 0.508413 0.345157
0.758564 0.538865 0.380596
0.925393 0.526936 0.403582
0.442821 0.556720 0.252904
0.528756 0.588007 0.313609
0.643055 0.623250 0.392839
0.769821 0.652545 0.456393
0.917906 0.657282 0.487845
0.495635 0.630636 0.302793
0.573885 0.654686 0.357052
0.683315 0.691243 0.438629
0.796671 0.727556 0.513843
0.918508 0.752598 0.548249
0.339949 0.274723 0.187000
0.424372 0.338389 0.245182
0.546564 0.376158 0.282442
0.745712 0.373997 0.280013
0.920967 0.355940 0.263105
0.424300 0.366966 0.250713
0.495116 0.413050 0.306032
0.590138 0.468000 0.356639
0.759539 0.500562 0.384705
0.935784 0.502078 0.388686
0.471091 0.488669 0.286713
0.562153 0.513821 0.360019
0.654888 0.563967 0.429646
0.779057 0.611240 0.479588
0.937629 0.625663 0.505745
0.492881 0.594596 0.301218
0.608450 0.618686 0.393385
0.713872 0.654847 0.480150
0.811798 0.697692 0.547198
0.933557 0.720087 0.592877
0.503868 0.643280 0.315393
0.636909 0.676804 0.409923
0.760926 0.720016 0.510771
0.860618 0.766308 0.594219
0.939174 0.799419 0.647597
